svgs/light/arrow-up-short-wide.svg

<svg xmlns="http://www.w3.org/2000/svg" viewBox="0 0 576 512"><!--! Font Awesome Pro 6.0.0-alpha3 by @fontawesome - https://fontawesome.com License - https://fontawesome.com/license (Commercial License) --><path d="M304 336h192c8.844 0 16-7.156 16-16s-7.156-16-16-16h-192c-8.844 0-15.1 7.156-15.1 16S295.2 336 304 336zM304 208h128C440.8 208 448 200.8 448 192s-7.156-16-16-16h-128c-8.844 0-15.1 7.156-15.1 16S295.2 208 304 208zM304 80h64c8.844 0 16-7.156 16-16S376.8 48 368 48h-64c-8.844 0-15.1 7.156-15.1 16S295.2 80 304 80zM560 432h-256c-8.844 0-15.1 7.156-15.1 16S295.2 464 304 464h256c8.844 0 16-7.156 16-16S568.8 432 560 432zM139.3 36.69c-6.25-6.25-16.38-6.25-22.62 0l-96 96c-6.25 6.25-6.25 16.38 0 22.62s16.38 6.25 22.62 0L112 86.63V464c0 8.844 7.157 16 16 16S144 472.8 144 464V86.63l68.69 68.69C215.8 158.4 219.9 160 224 160s8.188-1.562 11.31-4.688c6.25-6.25 6.25-16.38 0-22.62L139.3 36.69z"/></svg>

<svg xmlns="http://www.w3.org/2000/svg" viewBox="0 0 576 512"><!-- Font Awesome Pro 6.0.0-alpha2 by @fontawesome - https://fontawesome.com License - https://fontawesome.com/license (Commercial License) --><path d="M304 336H496C504.844 336 512 328.844 512 320S504.844 304 496 304H304C295.156 304 288 311.156 288 320S295.156 336 304 336ZM304 208H432C440.844 208 448 200.844 448 192S440.844 176 432 176H304C295.156 176 288 183.156 288 192S295.156 208 304 208ZM304 80H368C376.844 80 384 72.844 384 64S376.844 48 368 48H304C295.156 48 288 55.156 288 64S295.156 80 304 80ZM560 432H304C295.156 432 288 439.156 288 448S295.156 464 304 464H560C568.844 464 576 456.844 576 448S568.844 432 560 432ZM139.312 36.688C133.062 30.438 122.937 30.438 116.688 36.688L20.688 132.688C14.438 138.938 14.438 149.063 20.688 155.312S37.063 161.562 43.312 155.312L112 86.625V464C112 472.844 119.156 480 128 480S144 472.844 144 464V86.625L212.688 155.312C215.812 158.438 219.906 160 224 160S232.188 158.438 235.312 155.312C241.562 149.062 241.562 138.937 235.312 132.688L139.312 36.688Z"/></svg>
